icons/rss3-ai.svg

<svg width="135" height="121" viewBox="0 0 135 121" fill="none" xmlns="http://www.w3.org/2000/svg">
<path d="M105.704 0.31543H81.6003C80.1929 0.31543 79.0486 1.41911 79.0486 2.7767V21.5549C79.0486 22.9124 80.1929 24.0161 81.6003 24.0161H102.701C106.446 24.0161 109.475 26.9437 109.475 30.5501V90.5584C109.475 94.17 106.44 97.0924 102.701 97.0924H80.6065C79.9941 97.0924 79.4945 96.6105 79.4945 96.0198V64.4897C79.4945 63.1321 78.3503 62.0284 76.9428 62.0284H57.9798C56.5723 62.0284 55.4281 63.1321 55.4281 64.4897V96.0198C55.4281 96.6105 54.9285 97.0924 54.3161 97.0924H32.2212C28.4769 97.0924 25.4471 94.1648 25.4471 90.5584V30.5501C25.4471 26.9386 28.4823 24.0161 32.2212 24.0161H53.3223C54.7297 24.0161 55.874 22.9124 55.874 21.5549V2.7767C55.874 1.41911 54.7297 0.31543 53.3223 0.31543H29.2182C27.4294 0.31543 25.7157 0.999403 24.4533 2.21708L2.84725 23.0523C1.58483 24.27 0.875732 25.923 0.875732 27.6484V93.4497C0.875732 95.1752 1.58483 96.8281 2.84725 98.0458L24.4479 118.881C25.7104 120.099 27.424 120.783 29.2129 120.783H53.3169C54.7244 120.783 55.8686 119.679 55.8686 118.321V98.564C55.8686 97.9733 56.3682 97.4914 56.9806 97.4914H77.942C78.5544 97.4914 79.054 97.9733 79.054 98.564V118.321C79.054 119.679 80.1982 120.783 81.6057 120.783H105.71C107.499 120.783 109.212 120.099 110.475 118.881L132.075 98.0458C133.338 96.8281 134.047 95.1752 134.047 93.4497V27.6484C134.047 25.923 133.338 24.27 132.075 23.0523L110.469 2.21708C109.207 0.999403 107.493 0.31543 105.704 0.31543Z" fill="#1477FB"/>
<path d="M77.3047 32.0024H57.4719C56.2953 32.0024 55.3416 32.9147 55.3416 34.0401V51.4298C55.3416 52.5552 56.2953 53.4675 57.4719 53.4675H77.3047C78.4812 53.4675 79.435 52.5552 79.435 51.4298V34.0401C79.435 32.9147 78.4812 32.0024 77.3047 32.0024Z" fill="#1477FB"/>
</svg>

<svg xmlns="http://www.w3.org/2000/svg" fill="none" viewBox="0 0 135 121">
  <path fill="#1477FB" d="M105.704.315H81.6c-1.407 0-2.551 1.104-2.551 2.462v18.778c0 1.357 1.144 2.461 2.551 2.461h21.101c3.745 0 6.774 2.928 6.774 6.534v60.008c0 3.612-3.035 6.534-6.774 6.534H80.607c-.613 0-1.112-.481-1.112-1.072V64.49c0-1.358-1.145-2.462-2.552-2.462H57.98c-1.408 0-2.552 1.104-2.552 2.462v31.53c0 .59-.5 1.072-1.112 1.072H32.221c-3.744 0-6.774-2.927-6.774-6.534V30.55c0-3.611 3.035-6.534 6.774-6.534h21.101c1.408 0 2.552-1.104 2.552-2.461V2.777c0-1.358-1.144-2.462-2.552-2.462H29.218a6.87 6.87 0 0 0-4.765 1.902L2.847 23.052a6.38 6.38 0 0 0-1.971 4.596V93.45c0 1.725.709 3.378 1.971 4.596l21.6 20.835a6.86 6.86 0 0 0 4.766 1.902h24.104c1.407 0 2.552-1.104 2.552-2.462V98.564c0-.59.5-1.073 1.112-1.073h20.961c.612 0 1.112.482 1.112 1.073v19.757c0 1.358 1.144 2.462 2.552 2.462h24.104a6.87 6.87 0 0 0 4.765-1.902l21.6-20.835a6.38 6.38 0 0 0 1.972-4.596V27.648a6.38 6.38 0 0 0-1.972-4.596L110.469 2.217a6.86 6.86 0 0 0-4.765-1.902"/>
  <path fill="#1477FB" d="M77.305 32.002H57.472c-1.177 0-2.13.913-2.13 2.038v17.39c0 1.125.953 2.038 2.13 2.038h19.833c1.176 0 2.13-.913 2.13-2.038V34.04c0-1.125-.954-2.038-2.13-2.038"/>
</svg>
